X: 27969
T: Mouse In The Mug, The
R: jig
M: 6/8
K: Gmajor
|:~G3 EGD|~G3 Bdg|fge dBG|~A3 BAB|
~G3 EGD|~G3 Bdg|~e3 dBG|1 AGF GBA:|2 AGF GBd||
gab agf|fgd edB|deg edB|AGA BG/B/d|
gab agf|fgd edB|deg edB|AGF GG/B/d|
gab agf|fgd edB|deg edB|AGA BAB|
~G3 EGD|~G3 Bdg|~e3 dBG|AGF G3||

